X:198
T:Tom Ward's Downfall (reel)  
B:CRE1.090 (Bascadh Thomais Mhic an Bhaird)
F:file ID: cre.1/198tom_w
S:Pat Brophy
M:C
L:1/8
Q:180
R:reel
K:G
z|BAGF GED2|EDEG A2GE|DEGA BA (3B^cd|edgd edgd|
BAGF GED2|EDEG A2GE|DEGA BA (3B^cd|gedc BGG:|
d|egga ged2|eaab a2ga|bagf gbaf|(3gfe dc BGGd|
egga ged2|eaab a2ga|bagf gbaf|(3gfe dc BGG:|

%%%

